src/icons/handshake.svg

<svg width="65" height="41" viewBox="0 0 65 41" fill="none" xmlns="http://www.w3.org/2000/svg">
<path d="M32.1547 2.26376L41.9859 10.6354C43.6211 12.0236 43.9359 14.5222 42.6969 16.3055C41.3867 18.2062 38.8375 18.5799 37.0805 17.1384L26.9953 8.89487C26.2844 8.31825 25.2687 8.44639 24.7102 9.19385C24.1516 9.94132 24.2836 11.0091 24.9945 11.5964L27.1172 13.3263L13 26.9943V6.83399H13.0711L13.4672 6.56704L20.8406 1.60172C22.3945 0.555262 24.2125 0 26.0609 0C28.275 0 30.4281 0.800858 32.1547 2.26376ZM29.8391 15.5473L35.0898 19.8399C38.2891 22.4667 42.9305 21.7833 45.3273 18.3236C47.582 15.0668 47.0133 10.5179 44.0375 7.98723L35.5875 0.800858C36.7656 0.277631 38.0352 0.0106779 39.325 0.0106779C41.2344 -1.63094e-07 43.093 0.597974 44.6875 1.7085L52 6.83399V30.753H49.1359L39.8531 39.6585C37.8625 41.5699 34.7852 41.4204 32.9672 39.3275C32.4086 38.6761 32.0328 37.918 31.8398 37.1278L30.1133 38.7936C28.1328 40.705 25.0453 40.5661 23.2273 38.4839C22.7703 37.9607 22.4352 37.352 22.2219 36.722C20.2516 38.1102 17.5703 37.8219 15.9148 35.9212C14.0969 33.8389 14.2289 30.5928 16.2094 28.6814L29.8391 15.5473ZM63.375 6.83399C64.2688 6.83399 65 7.60281 65 8.54249V30.753C65 32.643 63.5477 34.17 61.75 34.17H58.5C56.7023 34.17 55.25 32.643 55.25 30.753V6.83399H63.375ZM60.125 27.336C59.694 27.336 59.2807 27.516 58.976 27.8364C58.6712 28.1568 58.5 28.5913 58.5 29.0445C58.5 29.4976 58.6712 29.9321 58.976 30.2526C59.2807 30.573 59.694 30.753 60.125 30.753C60.556 30.753 60.9693 30.573 61.274 30.2526C61.5788 29.9321 61.75 29.4976 61.75 29.0445C61.75 28.5913 61.5788 28.1568 61.274 27.8364C60.9693 27.516 60.556 27.336 60.125 27.336ZM9.75 6.83399V30.753C9.75 32.643 8.29766 34.17 6.5 34.17H3.25C1.45234 34.17 0 32.643 0 30.753V8.54249C0 7.60281 0.731247 6.83399 1.625 6.83399H9.75ZM6.5 29.0445C6.5 28.5913 6.3288 28.1568 6.02405 27.8364C5.7193 27.516 5.30598 27.336 4.875 27.336C4.44402 27.336 4.0307 27.516 3.72595 27.8364C3.4212 28.1568 3.25 28.5913 3.25 29.0445C3.25 29.4976 3.4212 29.9321 3.72595 30.2526C4.0307 30.573 4.44402 30.753 4.875 30.753C5.30598 30.753 5.7193 30.573 6.02405 30.2526C6.3288 29.9321 6.5 29.4976 6.5 29.0445Z" fill="#FFB801"/>
</svg>

<svg xmlns="http://www.w3.org/2000/svg" width="65" height="41" fill="none">
  <path fill="#FFB801" d="m32.155 2.264 9.83 8.371c1.636 1.389 1.95 3.887.712 5.67-1.31 1.901-3.86 2.275-5.617.833L26.995 8.895c-.71-.577-1.726-.449-2.285.299a1.765 1.765 0 0 0 .284 2.402l2.123 1.73L13 26.994V6.834h.071l.396-.267 7.374-4.965A9.349 9.349 0 0 1 26.06 0c2.214 0 4.367.8 6.094 2.264Zm-2.316 13.283 5.25 4.293c3.2 2.627 7.842 1.943 10.238-1.516 2.255-3.257 1.686-7.806-1.29-10.337L35.588.801a9.192 9.192 0 0 1 3.738-.79c1.91-.011 3.768.587 5.362 1.697L52 6.835v23.919h-2.864l-9.283 8.905c-1.99 1.912-5.068 1.762-6.886-.33a5.312 5.312 0 0 1-1.127-2.2l-1.727 1.666c-1.98 1.911-5.068 1.772-6.886-.31a5.233 5.233 0 0 1-1.005-1.762c-1.97 1.388-4.652 1.1-6.307-.8-1.818-2.083-1.686-5.33.294-7.24l13.63-13.135Zm33.536-8.713c.894 0 1.625.769 1.625 1.708v22.211c0 1.89-1.452 3.417-3.25 3.417H58.5c-1.798 0-3.25-1.527-3.25-3.417V6.834h8.125Zm-3.25 20.502c-.431 0-.844.18-1.149.5-.305.32-.476.755-.476 1.209 0 .453.171.887.476 1.208.305.32.718.5 1.149.5.431 0 .844-.18 1.149-.5.305-.32.476-.755.476-1.209 0-.453-.171-.887-.476-1.208-.305-.32-.718-.5-1.149-.5ZM9.75 6.834v23.919c0 1.89-1.452 3.417-3.25 3.417H3.25C1.452 34.17 0 32.643 0 30.753V8.543c0-.94.731-1.709 1.625-1.709H9.75ZM6.5 29.044c0-.453-.171-.887-.476-1.208-.305-.32-.718-.5-1.149-.5-.431 0-.844.18-1.149.5-.305.32-.476.755-.476 1.209 0 .453.171.887.476 1.208.305.32.718.5 1.149.5.431 0 .844-.18 1.149-.5.305-.32.476-.755.476-1.209Z"/>
</svg>
